packages/components/src/telekom/icons/home/internet-at-home/default.svg

<?xml version="1.0" encoding="UTF-8"?>
<svg width="24px" height="24px" viewBox="0 0 24 24" version="1.1" xmlns="http://www.w3.org/2000/svg" xmlns:xlink="http://www.w3.org/1999/xlink">
    <title>/svg/icon/home/internet-at-home/default</title>
    <g id="icon/home/internet-at-home/default" stroke="none" stroke-width="1" fill="none" fill-rule="evenodd">
        <path d="M19,12.1 L20.5,13.6 L20.5,19 C20.5,20.5910715 19.2447067,21.9031888 17.6755899,21.9948821 L17.5,22 L6.49999996,22 C4.90892854,22 3.59681119,20.7447067 3.50511795,19.17559 L3.49999996,19 L3.49999996,13.6 L4.99999996,12.1 L4.99999996,19 C4.99999996,19.8 5.57577852,20.4228374 6.35216768,20.4933442 L6.49999996,20.5 L17.5,20.5 C18.3,20.5 18.9228373,19.9242215 18.9933442,19.1478323 L19,19 L19,12.1 Z M12,15.75 C12.4970563,15.75 12.9,16.1529437 12.9,16.65 C12.9,17.1470563 12.4970563,17.55 12,17.55 C11.5029437,17.55 11.1,17.1470563 11.1,16.65 C11.1,16.1529437 11.5029437,15.75 12,15.75 Z M11.95,13.1 C13.1777778,13.1 14.2717592,13.7243827 14.894976,14.6783008 L15,14.85 L14,15.75 C13.7,15 12.9,14.45 11.9,14.4 C11.06,14.4 10.3506667,14.8791111 9.97525925,15.5934222 L9.89999999,15.75 L8.89999999,14.85 C9.49999999,13.8 10.65,13.1 11.95,13.1 Z M12,10.5 C14.0125,10.5 15.7953993,11.4643229 16.9086299,12.9529008 L17.05,13.15 L16.05,14 C15.2,12.7 13.7,11.8 12,11.8 C10.3809524,11.8 8.94331064,12.5709751 8.07580173,13.810582 L7.94999998,14 L6.94999998,13.15 C8.04999998,11.55 9.89999999,10.5 12,10.5 Z M12,0.849999954 L23.55,12.45 L22.5,13.5 L12,2.99999996 L1.49999996,13.5 L0.449999952,12.45 L12,0.849999954 Z" id="Icon" fill="#000000"></path>
    </g>
</svg>

<svg width="24" height="24" xmlns="http://www.w3.org/2000/svg"><path d="M19 12.1l1.5 1.5V19a3.01 3.01 0 01-2.824 2.995L17.5 22h-11a3.01 3.01 0 01-2.995-2.824L3.5 19v-5.4L5 12.1V19c0 .8.576 1.423 1.352 1.493l.148.007h11c.8 0 1.423-.576 1.493-1.352L19 19v-6.9zm-7 3.65a.9.9 0 110 1.8.9.9 0 010-1.8zm-.05-2.65c1.228 0 2.322.624 2.945 1.578l.105.172-1 .9c-.3-.75-1.1-1.3-2.1-1.35-.84 0-1.55.48-1.925 1.193l-.075.157-1-.9c.6-1.05 1.75-1.75 3.05-1.75zm.05-2.6c2.012 0 3.795.964 4.909 2.453l.141.197-1 .85c-.85-1.3-2.35-2.2-4.05-2.2-1.619 0-3.057.771-3.924 2.01L7.95 14l-1-.85c1.1-1.6 2.95-2.65 5.05-2.65zm0-9.65l11.55 11.6-1.05 1.05L12 3 1.5 13.5.45 12.45 12 .85z" fill="#000" fill-rule="evenodd"/></svg>
